X:1
T:Première Gymnopédie
T:Première Gymnopédie
T:Erik Satie
T:Domaine public
C:Erik Satie
Z:Domaine public
%%score { 1 | ( 2 3 ) }
L:1/8
Q:1/4=80
M:3/4
K:D
V:1 treble nm="Piano"
V:2 bass 
V:3 bass 
V:1
!pp!"^Lent et douloureux" z6 | z6 | z6 | z6 |!pp! z2!<(! (f2 a2 | g2 f2 c2 | B2 c2!<)!!>(! d2 | %7
 A6)!>)! |!f! F6- | F6- | F6- | F6 |!pp! z2!<(! (f2 a2 | g2 f2 c2 | B2 c2 d2!<)! |!>(! A6 | c6 | %17
 f6!>)! | E6-) | E6- | E6 |!p! (A2!<(! B2 =c2 | e2 d2 B2!<)! |!>(! d2 =c2 B2!>)! | d6- | %25
 d4)!<(! (d2 | e2 =f2 g2 | a2 =c2 d2!<)! |!>(! e2 d2 B2 | d6-!>)! | d4)!<(! (d2 |1 g6 | f6!<)! | %33
 B2 A2 B2 | c2 d2 e2 | c2!>(! d2 e2 | F6!>)! | [=CEA=c]6) | [DFAd]6 :|2!<(! (g6 | =f6!<)! | %41
 B2 =c2 =f2 | e2 d2 =c2 | e2 d2 =c2 |!>(! =F6 | [=CEA=c]6 | [D=FAd]6)!>)! |] %47
V:2
 G,,6 | D,,6 | G,,6 | D,,6 | G,,6 | D,,6 | G,,6 | D,,6 | G,,6 | D,,6 | G,,6 | D,,6 | G,,6 | D,,6 | %14
 G,,6 | D,,6 | F,,6 | B,,,6 | E,,6 | E,,6 | D,,6 | A,,,6 | D,,6 | D,,6 | D,,6 | D,,6 | D,,6 | %27
 D,,6 | D,,6 | D,,6 | D,,6 |1 E,,6 | F,,6 | B,,,6 | E,,6 | E,,6 | E,,6 | [A,,G,]6 | [D,,A,,D,]6 :|2 %39
 E,,6 | E,,6 | E,,6 | E,,6 | E,,6 | E,,6 | [A,,G,]6 | [D,,A,,D,]6 |] %47
V:3
 z2 [B,DF]4 | z2 [A,CF]4 | z2 [B,DF]4 | z2 [A,CF]4 | z2 [B,DF]4 | z2 [A,CF]4 | z2 [B,DF]4 | %7
 z2 [A,CF]4 | z2 [B,DF]4 | z2 [A,CF]4 | z2 [B,DF]4 | z2 [A,CF]4 | z2 [B,DF]4 | z2 [A,CF]4 | %14
 z2 [B,DF]4 | z2 [A,CF]4 | z2 [A,CF]4 | z2 [B,DF]4 | z2 [G,B,]4 | z2 [B,DG]4 | z2 [=F,A,D]4 | %21
 z2 [A,=CE]4 | z2 [G,B,E]4 | z2 [D,G,B,E]4 | z2 [=C,E,A,D]4 | z2 [=C,F,A,D]4 | z2 [A,=C=F]4 | %27
 z2 [A,=CE]4 | z2 [D,G,B,E]4 | z2 [=C,E,A,D]4 | z2 [=C,F,A,D]4 |1 z2 [B,EG]4 | z2 [A,CF]4 | %33
 z2 [B,DF]4 | z2 [CEA]4 | z2 [A,CFA]4 | z2 [B,,A,D]2 [E,B,DG]2 | x6 | x6 :|2 z2 [B,EG]4 | %40
 z2 [A,D=FA]4 | z2 [A,=C=F]4 | z2 [=CEA]4 | z2 [A,=C=FA]4 | z2 [B,,A,D]2 [E,B,DG]2 | x6 | x6 |] %47

